X:10939
T:Polka  CF (pk09340)
S: Hanny Christen. Bd.X Unterwalden II. Glarus.
S: T\"anze aus dem Kanton Nidwalden. S.178-219. S.194 (pk09340) orig. C,F
S: \"Uberliefert durch Karl Feierabend und Sepp Linder (*1883)
%%MIDI program 21
R:polka
M:2/4
L:1/16
O:Switzerland
K:C %%MIDI gchordon
G2 |: "C"G2e2 c2a2 | g2ecG4 | "G7"d^cde d2G2 | "C"e^def e2E2 | G2e2 c2a2 | g2ecG4 | "G"d2^cd "D7"^fe=cA |1
"G"G2g2 g2G2 :|2 "G"G2g2 g2g2 |: "G7"f2fe d2a2 | "C"g2gf e2c'2 | "G7"bdfb afda | "C"gcea g2c2 | "G7"f2fe d2a2 | 
"C"g2gf e2c'2 | "G7"bdfb agfB |1 "C"c2e2 c2g2 :|2 "C"c2e2 c2z2 |: [K:F] "F"A4 AB=Bc | agfe f2c2 | 
"C7"bag^f g2c2 | "F"agfe f2c2 | A4 AB=Bc | agfe f2c2 | "C7"bagf ecde | "F"f2a2 f2z2 :|  
% pk09340

